flaticon/emoticons/in-love-4.svg

<svg xmlns="http://www.w3.org/2000/svg" width="32" height="32" viewBox="0 0 24 24">
    <path d="M 18.210938 13.097656 C 17.929688 12.980469 17.613281 13.113281 17.496094 13.390625 C 16.8125 15.035156 15.464844 16.308594 13.710938 16.976562 C 11.996094 17.628906 10.054688 17.609375 8.390625 16.914062 C 8.113281 16.796875 7.792969 16.929688 7.679688 17.207031 C 7.5625 17.484375 7.695312 17.804688 7.972656 17.921875 C 8.964844 18.335938 10.039062 18.542969 11.121094 18.542969 C 12.128906 18.542969 13.144531 18.359375 14.097656 17.996094 C 16.136719 17.222656 17.699219 15.734375 18.503906 13.808594 C 18.617188 13.53125 18.488281 13.210938 18.210938 13.097656 Z M 18.210938 13.097656"/>
    <path d="M 12 0 C 5.382812 0 0 5.382812 0 12 C 0 18.617188 5.382812 24 12 24 C 18.617188 24 24 18.617188 24 12 C 24 5.382812 18.617188 0 12 0 Z M 12 22.910156 C 5.984375 22.910156 1.089844 18.015625 1.089844 12 C 1.089844 5.984375 5.984375 1.089844 12 1.089844 C 18.015625 1.089844 22.910156 5.984375 22.910156 12 C 22.910156 18.015625 18.015625 22.910156 12 22.910156 Z M 12 22.910156"/>
    <path d="M9.847656 9.3125C10.34375 8.878906 10.683594 8.324219 10.832031 7.714844 10.933594 7.3125 10.914062 7.042969 10.894531 6.929688 10.78125 5.777344 9.886719 4.910156 8.808594 4.910156 8.273438 4.910156 7.773438 5.113281 7.394531 5.457031 7.023438 5.109375 6.535156 4.910156 6.003906 4.910156 4.925781 4.910156 4.03125 5.777344 3.917969 6.929688 3.898438 7.042969 3.878906 7.3125 3.976562 7.714844 4.125 8.324219 4.46875 8.878906 4.964844 9.3125L7.027344 11.121094C7.132812 11.210938 7.261719 11.253906 7.386719 11.253906 7.515625 11.253906 7.640625 11.210938 7.746094 11.125zM5.683594 8.488281C5.355469 8.203125 5.132812 7.847656 5.039062 7.457031 4.984375 7.234375 4.992188 7.105469 4.992188 7.105469 4.996094 7.089844 5 7.070312 5 7.050781 5.046875 6.53125 5.410156 6 6.003906 6 6.394531 6 6.722656 6.226562 6.886719 6.601562 6.976562 6.800781 7.171875 6.929688 7.390625 6.929688 7.605469 6.929688 7.800781 6.800781 7.890625 6.601562 8.046875 6.234375 8.40625 6 8.808594 6 9.402344 6 9.761719 6.527344 9.816406 7.089844 9.816406 7.09375 9.832031 7.222656 9.773438 7.457031 9.679688 7.847656 9.457031 8.203125 9.132812 8.488281L7.390625 9.988281zM20.082031 6.929688C19.96875 5.777344 19.074219 4.910156 17.996094 4.910156 17.460938 4.910156 16.960938 5.113281 16.582031 5.457031 16.210938 5.109375 15.722656 4.910156 15.191406 4.910156 14.113281 4.910156 13.21875 5.777344 13.105469 6.929688 13.085938 7.042969 13.066406 7.3125 13.167969 7.714844 13.316406 8.324219 13.65625 8.878906 14.152344 9.3125L16.21875 11.121094C16.320312 11.210938 16.449219 11.253906 16.578125 11.253906 16.703125 11.253906 16.828125 11.210938 16.933594 11.125L19.035156 9.3125C19.53125 8.878906 19.875 8.324219 20.023438 7.714844 20.121094 7.3125 20.101562 7.042969 20.082031 6.929688zM18.960938 7.457031C18.867188 7.847656 18.644531 8.203125 18.320312 8.488281L16.578125 9.988281 14.871094 8.492188C14.542969 8.207031 14.320312 7.847656 14.226562 7.457031 14.171875 7.234375 14.183594 7.105469 14.179688 7.105469 14.179688 7.105469 14.179688 7.105469 14.179688 7.109375 14.183594 7.089844 14.1875 7.070312 14.191406 7.050781 14.238281 6.527344 14.597656 6 15.191406 6 15.582031 6 15.910156 6.226562 16.078125 6.601562 16.164062 6.800781 16.359375 6.929688 16.578125 6.929688 16.792969 6.929688 16.988281 6.800781 17.078125 6.601562 17.234375 6.234375 17.597656 6 17.996094 6 18.589844 6 18.953125 6.53125 19.003906 7.089844 19.003906 7.09375 19.019531 7.222656 18.960938 7.457031zM18.960938 7.457031"/>
</svg>

<svg xmlns="http://www.w3.org/2000/svg" width="32" height="32" viewBox="0 0 24 24">
    <path d="M18.21 13.098a.546.546 0 0 0-.714.293c-.683 1.644-2.031 2.918-3.785 3.586-1.715.652-3.656.632-5.32-.063a.541.541 0 0 0-.711.293.547.547 0 0 0 .293.715 8.183 8.183 0 0 0 3.148.621 8.383 8.383 0 0 0 2.977-.547c2.039-.773 3.601-2.262 4.406-4.187a.545.545 0 0 0-.293-.711zm0 0"/>
    <path d="M12 0C5.383 0 0 5.383 0 12s5.383 12 12 12 12-5.383 12-12S18.617 0 12 0zm0 22.91C5.984 22.91 1.09 18.016 1.09 12S5.984 1.09 12 1.09 22.91 5.984 22.91 12 18.016 22.91 12 22.91zm0 0"/>
    <path d="M9.848 9.313c.496-.434.836-.989.984-1.598.102-.402.082-.672.063-.785-.114-1.153-1.008-2.02-2.086-2.02-.536 0-1.036.203-1.414.547a2.02 2.02 0 0 0-1.391-.547c-1.078 0-1.973.867-2.086 2.02-.02.113-.04.383.059.785.148.61.492 1.164.988 1.598l2.062 1.808a.554.554 0 0 0 .72.004zm-4.164-.825a1.983 1.983 0 0 1-.645-1.031c-.055-.223-.047-.352-.047-.352A.23.23 0 0 0 5 7.051C5.047 6.53 5.41 6 6.004 6c.39 0 .719.227.883.602.09.199.285.328.504.328.214 0 .41-.13.5-.328A.991.991 0 0 1 8.809 6c.593 0 .953.527 1.007 1.09 0 .004.016.133-.043.367a2 2 0 0 1-.64 1.031l-1.742 1.5zm0 0M20.082 6.93c-.113-1.153-1.008-2.02-2.086-2.02-.535 0-1.035.203-1.414.547a2.02 2.02 0 0 0-1.39-.547c-1.079 0-1.973.867-2.087 2.02-.02.113-.039.383.063.785.148.61.488 1.164.984 1.598l2.067 1.808a.54.54 0 0 0 .36.133c.124 0 .25-.043.355-.129l2.101-1.813c.496-.433.84-.988.988-1.597.098-.402.079-.672.059-.785zm-1.121.527a2 2 0 0 1-.64 1.031l-1.743 1.5-1.707-1.496a1.993 1.993 0 0 1-.644-1.035c-.055-.223-.043-.352-.047-.352v.004l.011-.058c.047-.524.407-1.051 1-1.051.391 0 .72.227.887.602.086.199.281.328.5.328.215 0 .41-.13.5-.328A.995.995 0 0 1 17.996 6c.594 0 .957.531 1.008 1.09 0 .004.016.133-.043.367zm0 0"/>
</svg>
